**kern	**kern	**dynam
*part1	*part1	*part1
*staff2	*staff1	*
*I"Piano	*	*
*clefF4	*clefG2	*
*k[f#c#g#d#]	*k[f#c#g#d#]	*
=1	=1	=1
*^	*^	*
4CC# 4GG# 4E	4ryy	2cc#	4c#	.
4C#	4C#	.	4c#	.
*v	*v	*	*	*
*	*v	*v	*
=	=	=
4FF# 4C# 4A	4c# 4f# 4a 4cc#	<
4CC# 4E	8c#L 8e 8g# 8cc#	.
.	8AJ 8a	.
=	=	=
*^	*^	*
4GGn 4E	2CCn	4gn 4ccn 4ee	[2e	[ mf
4F#X	.	4r	.	.
*v	*v	*	*	*
*	*v	*v	*
=	=	=
[2BBB [2BB	4G#X 4e]	.
.	4G# 4B	.
=	=	=
2BBB] 2BB]	4A 4c#	pp
.	4A 4B 4d#	.
=	=	=
*^	*	*
4BB	[2EE	2G# 2e	.
[4BB	.	.	.
=	=	=	=
2BB]	4.EE]	(4e 4g# 4b	.
.	.	8BL 8e 8g#	.
.	8BBB	8AJ 8d# 8f#	.
*v	*v	*	*
=	=	=
*-	*-	*-
!!!system-decoration: {(s1,s2)}
